src/img/instagram.svg

<?xml version="1.0" encoding="utf-8"?>
<!-- Generated by IcoMoon.io -->
<!DOCTYPE svg PUBLIC "-//W3C//DTD SVG 1.1//EN" "http://www.w3.org/Graphics/SVG/1.1/DTD/svg11.dtd">
<svg version="1.1" xmlns="http://www.w3.org/2000/svg" xmlns:xlink="http://www.w3.org/1999/xlink" width="16" height="16" viewBox="0 0 16 16">
<path fill="#ffffff" d="M8 1.441c2.137 0 2.391 0.009 3.231 0.047 0.781 0.034 1.203 0.166 1.484 0.275 0.372 0.144 0.641 0.319 0.919 0.597 0.281 0.281 0.453 0.547 0.6 0.919 0.109 0.281 0.241 0.706 0.275 1.484 0.037 0.844 0.047 1.097 0.047 3.231s-0.009 2.391-0.047 3.231c-0.034 0.781-0.166 1.203-0.275 1.484-0.144 0.372-0.319 0.641-0.597 0.919-0.281 0.281-0.547 0.453-0.919 0.6-0.281 0.109-0.706 0.241-1.484 0.275-0.844 0.037-1.097 0.047-3.231 0.047s-2.391-0.009-3.231-0.047c-0.781-0.034-1.203-0.166-1.484-0.275-0.372-0.144-0.641-0.319-0.919-0.597-0.281-0.281-0.453-0.547-0.6-0.919-0.109-0.281-0.241-0.706-0.275-1.484-0.038-0.844-0.047-1.097-0.047-3.231s0.009-2.391 0.047-3.231c0.034-0.781 0.166-1.203 0.275-1.484 0.144-0.372 0.319-0.641 0.597-0.919 0.281-0.281 0.547-0.453 0.919-0.6 0.281-0.109 0.706-0.241 1.484-0.275 0.841-0.038 1.094-0.047 3.231-0.047zM8 0c-2.172 0-2.444 0.009-3.297 0.047-0.85 0.038-1.434 0.175-1.941 0.372-0.528 0.206-0.975 0.478-1.419 0.925-0.447 0.444-0.719 0.891-0.925 1.416-0.197 0.509-0.334 1.091-0.372 1.941-0.037 0.856-0.047 1.128-0.047 3.3s0.009 2.444 0.047 3.297c0.038 0.85 0.175 1.434 0.372 1.941 0.206 0.528 0.478 0.975 0.925 1.419 0.444 0.444 0.891 0.719 1.416 0.922 0.509 0.197 1.091 0.334 1.941 0.372 0.853 0.037 1.125 0.047 3.297 0.047s2.444-0.009 3.297-0.047c0.85-0.037 1.434-0.175 1.941-0.372 0.525-0.203 0.972-0.478 1.416-0.922s0.719-0.891 0.922-1.416c0.197-0.509 0.334-1.091 0.372-1.941 0.037-0.853 0.047-1.125 0.047-3.297s-0.009-2.444-0.047-3.297c-0.037-0.85-0.175-1.434-0.372-1.941-0.197-0.531-0.469-0.978-0.916-1.422-0.444-0.444-0.891-0.719-1.416-0.922-0.509-0.197-1.091-0.334-1.941-0.372-0.856-0.041-1.128-0.050-3.3-0.050v0z"></path>
<path fill="#ffffff" d="M8 3.891c-2.269 0-4.109 1.841-4.109 4.109s1.841 4.109 4.109 4.109 4.109-1.841 4.109-4.109c0-2.269-1.841-4.109-4.109-4.109zM8 10.666c-1.472 0-2.666-1.194-2.666-2.666s1.194-2.666 2.666-2.666c1.472 0 2.666 1.194 2.666 2.666s-1.194 2.666-2.666 2.666z"></path>
<path fill="#ffffff" d="M13.231 3.728c0 0.53-0.43 0.959-0.959 0.959s-0.959-0.43-0.959-0.959c0-0.53 0.43-0.959 0.959-0.959s0.959 0.43 0.959 0.959z"></path>
</svg>

<svg width="16" height="16" viewBox="0 0 16 16" fill="none" xmlns="http://www.w3.org/2000/svg">
<path d="M8.001 1.441C10.138 1.441 10.392 1.45 11.232 1.488C12.013 1.522 12.435 1.654 12.716 1.763C13.088 1.907 13.357 2.082 13.635 2.36C13.916 2.641 14.088 2.907 14.235 3.279C14.344 3.56 14.476 3.985 14.51 4.763C14.547 5.607 14.557 5.86 14.557 7.994C14.557 10.128 14.548 10.385 14.51 11.225C14.476 12.006 14.344 12.428 14.235 12.709C14.091 13.081 13.916 13.35 13.638 13.628C13.357 13.909 13.091 14.081 12.719 14.228C12.438 14.337 12.013 14.469 11.235 14.503C10.391 14.54 10.138 14.55 8.004 14.55C5.87 14.55 5.613 14.541 4.773 14.503C3.992 14.469 3.57 14.337 3.289 14.228C2.917 14.084 2.648 13.909 2.37 13.631C2.089 13.35 1.917 13.084 1.77 12.712C1.661 12.431 1.529 12.006 1.495 11.228C1.457 10.384 1.448 10.131 1.448 7.997C1.448 5.863 1.457 5.606 1.495 4.766C1.529 3.985 1.661 3.563 1.77 3.282C1.914 2.91 2.089 2.641 2.367 2.363C2.648 2.082 2.914 1.91 3.286 1.763C3.567 1.654 3.992 1.522 4.77 1.488C5.611 1.45 5.864 1.441 8.001 1.441ZM8.001 0C5.829 0 5.557 0.009 4.704 0.047C3.854 0.085 3.27 0.222 2.763 0.419C2.235 0.625 1.788 0.897 1.344 1.344C0.897 1.788 0.625 2.235 0.419 2.76C0.222 3.269 0.085 3.851 0.047 4.701C0.01 5.557 0 5.829 0 8.001C0 10.173 0.009 10.445 0.047 11.298C0.085 12.148 0.222 12.732 0.419 13.239C0.625 13.767 0.897 14.214 1.344 14.658C1.788 15.102 2.235 15.377 2.76 15.58C3.269 15.777 3.851 15.914 4.701 15.952C5.554 15.989 5.826 15.999 7.998 15.999C10.17 15.999 10.442 15.99 11.295 15.952C12.145 15.915 12.729 15.777 13.236 15.58C13.761 15.377 14.208 15.102 14.652 14.658C15.096 14.214 15.371 13.767 15.574 13.242C15.771 12.733 15.908 12.151 15.946 11.301C15.983 10.448 15.993 10.176 15.993 8.004C15.993 5.832 15.984 5.56 15.946 4.707C15.909 3.857 15.771 3.273 15.574 2.766C15.377 2.235 15.105 1.788 14.658 1.344C14.214 0.9 13.767 0.625 13.242 0.422C12.733 0.225 12.151 0.088 11.301 0.05C10.445 0.009 10.173 0 8.001 0V0Z" fill="white"/>
<path d="M8.001 3.891C5.732 3.891 3.892 5.732 3.892 8C3.892 10.268 5.733 12.109 8.001 12.109C10.269 12.109 12.11 10.268 12.11 8C12.11 5.731 10.269 3.891 8.001 3.891ZM8.001 10.666C6.529 10.666 5.335 9.472 5.335 8C5.335 6.528 6.529 5.334 8.001 5.334C9.473 5.334 10.667 6.528 10.667 8C10.667 9.472 9.473 10.666 8.001 10.666Z" fill="white"/>
<path d="M13.232 3.728C13.232 4.258 12.802 4.687 12.273 4.687C11.744 4.687 11.314 4.257 11.314 3.728C11.314 3.198 11.744 2.769 12.273 2.769C12.802 2.769 13.232 3.199 13.232 3.728Z" fill="white"/>
</svg>
